X:4
T:Angus Ranald MacIsaac
R:reel
C:Paul S. Cranford
O:Cape Breton Island
S:http://www.cranfordpub.com
D:currently unrecorded
B:Fiddler Magazine, 2000
Z:psc, (re-formatted,updated 9/17/04)
N:Angus Ranald is the son of David and Nancy, Halifax NS
H:                                                        copyrights Cranford Publications, SOCAN
L:1/8
Q:333
M:C|
K:A
e|cAce cA c2|dBcA BEGB|cAce cA c2|dBed cAAB|
cAce cA c2|dBcA BEGB|cAGB Acec|dBed cAA||
||E|{E}A2 Ac BGAF|EAce fBcB|A2 Ac BGAF|ECDB, CA,A,E|
{E}A2 Ac BGAF|EAce fBfg|abga fgec|dBed cAA|]
